src/assets/icons/cars/blow_car.svg

<svg width="48" height="48" viewBox="0 0 48 48" fill="none" xmlns="http://www.w3.org/2000/svg">
<g id="Icons / Vertical Cars / Car state blow">
<g id="Vector">
<path fill-rule="evenodd" clip-rule="evenodd" d="M37.0761 22.8749H37.0111L35.9791 22.8729C35.4271 22.8869 34.9741 23.3409 34.9891 23.8929C35.0031 24.4369 35.4311 24.8749 35.9721 24.8749H35.9981L36.9981 24.8259L36.9991 24.8249L37.0261 25.8819C37.0321 26.1269 36.9431 26.3589 36.7741 26.5369C36.6051 26.7139 36.3781 26.8149 36.1331 26.8219L34.9271 26.8529C34.4721 25.1439 32.9261 23.8749 31.0761 23.8749C29.1641 23.8749 27.5651 25.2249 27.1731 27.0209C27.1321 27.0189 27.0941 26.9989 27.0531 27.0039L19.6801 27.1509C19.5121 26.9859 19.3061 26.8749 19.0811 26.8749H19.0551L17.9291 27.1219C17.4401 25.4109 15.8701 24.3759 13.9801 24.4409C12.9121 24.4689 11.9181 24.9609 11.1821 25.7359C10.7251 26.2169 10.4201 26.8349 10.2471 27.4869L10.0161 27.4929C9.78707 27.4929 9.51807 27.4059 9.33207 27.2289C9.14607 27.0529 9.04107 26.8149 9.03407 26.5589L9.00007 25.2499C8.98107 24.5009 9.33507 23.7959 9.94807 23.3639L10.8551 22.7259C11.1381 22.5259 11.4671 22.3939 11.8081 22.3429L18.4761 21.3339C18.9521 21.2629 19.4091 21.1119 19.8351 20.8849L23.9001 20.9279C24.4511 20.9139 24.8881 20.6359 24.8731 20.0839C24.8591 19.5319 24.3691 19.0469 23.8481 19.0859L23.1931 19.0969L24.5921 18.3519C24.8971 18.1889 25.2411 18.0989 25.5861 18.0899L29.0561 17.9999C29.4011 17.9899 29.7501 18.0639 30.0621 18.2109L35.7241 20.8319C36.4961 21.1929 37.0761 21.9469 37.0761 22.7999V22.8749ZM33.0711 28.0019C32.8921 28.0119 32.5891 27.9809 32.2991 27.9519C31.9211 27.9149 31.5091 27.8749 31.0761 27.8749C30.6431 27.8749 30.2301 27.9149 29.8531 27.9519C29.5641 27.9809 29.2641 28.0109 29.0811 28.0019C29.0781 27.9679 29.0761 27.9259 29.0761 27.8749C29.0761 26.7719 29.9731 25.8749 31.0761 25.8749C32.1791 25.8749 33.0761 26.7719 33.0761 27.8749C33.0761 27.9259 33.0741 27.9679 33.0711 28.0019ZM38.9461 22.7489C38.9051 21.1339 37.9711 19.7059 36.5081 19.0209L30.9101 16.3989C30.3181 16.1219 29.6601 15.9839 29.0051 16.0009L25.5351 16.0909C24.8821 16.1069 24.2311 16.2779 23.6521 16.5859L18.8941 19.1199C18.8431 19.1469 18.7881 19.1649 18.7351 19.1879C18.5841 19.2059 18.4491 19.2519 18.3281 19.3209C18.2781 19.3319 18.2291 19.3489 18.1781 19.3569L11.5101 20.3649C10.8641 20.4619 10.2391 20.7129 9.70307 21.0899L8.79607 21.7289C7.63607 22.5469 6.96507 23.8819 7.00107 25.3019L7.03507 26.6099C7.05507 27.3999 7.38207 28.3259 7.95407 28.8709C8.50907 29.3969 9.22907 29.8749 9.99007 29.8749H10.0681L10.3831 29.6749C10.5641 29.9049 10.8111 29.8749 11.0831 29.8749H11.1101C11.6621 29.8749 12.0981 29.1939 12.0831 28.6419C12.0701 28.1079 12.2641 27.3919 12.6331 27.0049C13.0001 26.6179 13.4971 26.3909 14.0321 26.3769C15.1191 26.3709 16.0541 27.2109 16.0821 28.3129C16.0961 28.8649 16.5881 29.2709 17.1071 29.2629L19.1061 29.1629C19.3481 29.1569 19.5591 29.0359 19.7281 28.8679L27.1041 28.8359C27.1501 28.8349 27.1891 28.8209 27.2331 28.8169C27.5161 29.5789 28.1791 30.0029 29.1511 30.0029C29.4191 30.0029 29.7221 29.9749 30.0511 29.9419C30.6841 29.8799 31.4681 29.8799 32.1011 29.9419C32.4301 29.9749 32.7331 30.0029 33.0011 30.0029C33.3961 30.0029 33.9771 29.9549 34.4511 29.5319C34.6571 29.3469 34.8101 29.1219 34.9141 28.8539L36.1841 28.8209C36.9631 28.8009 37.6871 28.4789 38.2241 27.9149C38.7611 27.3499 39.0451 26.6089 39.0251 25.8309L38.9461 22.7489Z" fill="#253238"/>
<path fill-rule="evenodd" clip-rule="evenodd" d="M13.3759 27.6849C13.1859 27.8649 13.0859 28.1249 13.0859 28.3849C13.0859 28.6549 13.1859 28.9049 13.3759 29.0949C13.5659 29.2849 13.8259 29.3849 14.0859 29.3849C14.3459 29.3849 14.6059 29.2849 14.7859 29.0949C14.9759 28.9049 15.0859 28.6549 15.0859 28.3849C15.0859 28.1249 14.9759 27.8649 14.7859 27.6849C14.4259 27.3149 13.7459 27.3049 13.3759 27.6849Z" fill="#253238"/>
</g>
</g>
</svg>

<svg width="48" height="48" viewBox="0 0 48 48" fill="none" xmlns="http://www.w3.org/2000/svg"><g fill-rule="evenodd" clip-rule="evenodd" fill="#253238"><path d="M37.076 22.875h-.065l-1.032-.002c-.552.014-1.005.468-.99 1.02a.992.992 0 00.983.982h.026l1-.05H37l.027 1.057a.916.916 0 01-.893.94l-1.206.03c-.455-1.708-2-2.977-3.85-2.977a4.002 4.002 0 00-3.904 3.146c-.04-.002-.079-.022-.12-.017l-7.373.147c-.168-.165-.374-.276-.599-.276h-.026l-1.126.247c-.489-1.711-2.059-2.746-3.949-2.681-1.068.028-2.062.52-2.798 1.295-.457.48-.762 1.099-.935 1.75l-.23.007c-.23 0-.499-.087-.685-.264a.95.95 0 01-.298-.67L9 25.249a2.233 2.233 0 01.948-1.885l.907-.638c.283-.2.612-.332.953-.383l6.668-1.01a4.2 4.2 0 001.36-.448l4.064.043c.551-.014.988-.292.973-.844-.014-.552-.504-1.037-1.025-.998l-.655.01 1.4-.744c.304-.163.648-.253.993-.262l3.47-.09c.345-.01.694.064 1.006.21l5.662 2.622c.772.36 1.352 1.115 1.352 1.968v.075zm-4.005 5.127c-.179.01-.482-.021-.772-.05a12.39 12.39 0 00-1.223-.077c-.433 0-.846.04-1.223.077-.289.029-.589.059-.772.05a2.002 2.002 0 011.995-2.127 2.002 2.002 0 011.995 2.127zm5.875-5.253a4.211 4.211 0 00-2.438-3.728l-5.598-2.622A4.255 4.255 0 0029.005 16l-3.47.09a4.251 4.251 0 00-1.883.495l-4.758 2.534c-.05.027-.106.045-.159.068a1.068 1.068 0 00-.407.133c-.05.01-.099.028-.15.036l-6.668 1.008a4.257 4.257 0 00-1.807.725l-.907.639a4.231 4.231 0 00-1.795 3.573l.034 1.308c.02.79.347 1.716.92 2.26.554.527 1.274 1.005 2.035 1.005h.078l.315-.2c.181.23.428.2.7.2h.027c.552 0 .988-.681.973-1.233-.013-.534.181-1.25.55-1.637a1.993 1.993 0 011.4-.628c1.086-.006 2.021.834 2.05 1.936.013.552.505.958 1.024.95l2-.1c.241-.006.452-.127.621-.295l7.376-.032c.046-.001.085-.015.13-.02.282.763.945 1.187 1.917 1.187.268 0 .571-.028.9-.061a11.32 11.32 0 012.05 0c.33.033.632.06.9.06.395 0 .976-.047 1.45-.47.206-.185.36-.41.463-.678l1.27-.033a2.901 2.901 0 002.04-.906 2.898 2.898 0 00.801-2.084l-.079-3.082z"/><path d="M13.376 27.685c-.19.18-.29.44-.29.7a.99.99 0 001 1c.26 0 .52-.1.7-.29a.976.976 0 000-1.41c-.36-.37-1.04-.38-1.41 0z"/></g></svg>
